X:449
T:Princess of Wales Hornpipe,The. RH.450
T:Morpeth Rant,aka. RH.450
R:.hornpipe
S:Rev.R.Harrison’s MS,c1815,Cumbria
N:Strange barring….
O:England
A:Temple Sowerby,Cumbria
Z:vmp.Simon Wilson. Review PJH, 2008.
M:2/4
L:1/8
Q:2/4=100
K:D
(d/c/)|dBAG|FDFA|BGBd|cAce|\
defe|gfed|c2e2|e3(d/c/)|!
dBAG|FDFA|BGBd|cAce|\
defd|gedc|d2d2|d3:|!
|:(d/f/)|ad’af|ad’af|g2e2|e3(e/f/)|\
g3(b/g/)|f3a/f/|g2e2|e3d/c/|!
dBAG|FDFA|BGBd|cAce|\
defd|gedc|d2d2|d3:|

